X:1
T:Title
%%score { 1 | 2 }
L:1/8
M:4/4
K:F
V:1 treble nm="Grand Piano"
V:2 bass 
V:1
 z4 z2[Q:1/4=112] C2 | F2 F2 F3 A | c2 [Ec]2 c3 c | d2 c2 A3 F |[M:3/4] [FA]2 [EG]2 [EG]2 | %5
[M:1/4] [EA]2 |[M:4/4] F2 F2 F3 A | c2 [Ec]2 [Fc]2 [Fd][Fd] | [Fc] [FA]3 [EG]2 [EA]2 | %9
[M:3/4] [CF]6 |[M:1/4] [Ec]>[Ec] |[M:4/4] F2 F2 F2 F2 | F6 F>A | c2 c2 [Ec]2 [Ec]2 |[M:3/4] c6 | %15
[M:1/4] c2 |[M:4/4] d2 c2 A3 c | d2 c2 A2 F>G | [FA] [Fc]3 [EG]2 [EA]2 |[M:3/4] [CF]6 |] %20
V:2
 z4 z2 [F,A,]2 | [F,A,C]2 [F,B,D]2 [F,A,C]3 [F,CF] | [F,A,F]2 [C,B,]2 [F,A,F]3 [F,A,F] | %3
 [F,B,F]2 [F,A,F]2 [F,CF]3 [F,A,] |[M:3/4] [C,C]2 [C,B,]2 [C,B,]2 |[M:1/4] [C,C]2 | %6
[M:4/4] [F,A,C]2 [F,B,D]2 [F,A,C]3 [F,CF] | [F,A,F]2 [C,B,]2 [F,A,]2 [B,,B,][B,,B,] | %8
 [F,A,] [F,C]3 [C,B,]2 [C,C]2 |[M:3/4] [F,A,]6 |[M:1/4] [C,G,]>[C,G,] | %11
[M:4/4] [F,A,C]2 [F,A,C]2 [F,B,D]2 [F,B,D]2 | [F,A,C]6 [F,A,C]>[F,CF] | %13
 [F,A,F]2 [F,A,F]2 [C,G,]2 [C,B,]2 |[M:3/4] [F,A,F]6 |[M:1/4] [F,A,F]2 | %16
[M:4/4] [F,B,F]2 [F,A,F]2 [F,CF]3 [F,A,F] | [F,B,F]2 [F,A,F]2 [F,CF]2 [D,=B,D]>[D,B,D] | %18
 [C,C] [C,A,]3 [C,B,]2 [C,C]2 |[M:3/4] [F,A,]6 |] %20

